X: 30818
T: Otter's Pool, The
R: mazurka
M: 3/4
K: Dmajor
Adc|:"G"B2BA "A"cA|"D"F2DF AB|"A"A2 EG Bc|"A"B2 "D"A2 dc|
"G"B2 BA "A"cA|"D"F2DF AB|"A"cB AG FE|1 "D"D3 Adc:|2 "D"D3 GAB||
"A"c2ed cB|"A"ce Be A2|"Em" GF GA BA|"Em"GF EF GA|
"A"c2ed cB|"A"ce Be A2|"Em"GA Bc de|"G"g3 fed|
"A"c2ed cB|"A"ce Be A2|"Em" GF GA BA|"Em"GF EF GA|
"A"c2ed cB|"A"ce Be A2|"G"GA Bd "A"ec|"D"d6||

